assets/Telephone/Flat/telephone_flat.svg

<svg width="32" height="32" viewBox="0 0 32 32" fill="none" xmlns="http://www.w3.org/2000/svg">
<path d="M29.9611 14.1L29.6311 12.63C28.901 9.34 25.9908 7 22.6205 7H9.3795C6.00924 7 3.09902 9.34 2.35897 12.63L2.03894 14.1C1.81892 15.07 2.55898 16 3.55906 16H9.17949C9.93955 16 10.5496 15.39 10.5496 14.63V13.93C10.5496 13.41 10.9696 12.99 11.4897 12.99H20.5004C21.0204 12.99 21.4404 13.41 21.4404 13.93V14.63C21.4404 15.39 22.0505 16 22.8105 16H28.431C29.441 16 30.1811 15.07 29.9611 14.1Z" fill="#CA0B4A"/>
<path d="M3 14C2.44772 14 2 14.4477 2 15C2 15.5523 2.44772 16 3 16H9C9.55228 16 10 15.5523 10 15C10 14.4477 9.55228 14 9 14H3ZM23 14C22.4477 14 22 14.4477 22 15C22 15.5523 22.4477 16 23 16H29C29.5523 16 30 15.5523 30 15C30 14.4477 29.5523 14 29 14H23Z" fill="#990838"/>
<path d="M28.12 19.5L24.46 14.62C24.17 14.23 23.71 14 23.22 14H22.31C22.14 14 22 13.86 22 13.69V11.31C22 11.14 21.86 11 21.69 11H20.31C20.14 11 20 11.14 20 11.31V13.69C20 13.86 19.86 14 19.69 14H12.31C12.14 14 12 13.86 12 13.69V11.31C12 11.14 11.86 11 11.69 11H10.31C10.14 11 10 11.14 10 11.31V13.69C10 13.86 9.86 14 9.69 14H8.78C8.29 14 7.83 14.23 7.53 14.63L3.88 19.5C2.66 21.12 2 23.1 2 25.13V28.44C2 29.3 2.7 30 3.56 30H28.44C29.3 30 30 29.3 30 28.44V25.13C30 23.1 29.34 21.12 28.12 19.5Z" fill="#F92F60"/>
<path d="M28.44 26.9999H3.56C2.7 26.9999 2 26.36 2 25.5V28.4399C2 29.2999 2.7 29.9999 3.56 29.9999H28.44C29.3 29.9999 30 29.2999 30 28.4399V25.5C30 26.36 29.3 26.9999 28.44 26.9999Z" fill="#990838"/>
<path d="M13.6981 19H12.3215C12.1407 19 12 18.8593 12 18.6884V17.3116C12 17.1407 12.1407 17 12.3115 17H13.688C13.8588 17 13.9995 17.1407 13.9995 17.3116V18.6884C14.0095 18.8593 13.8689 19 13.6981 19ZM16.6981 19H15.3215C15.1407 19 15 18.8593 15 18.6884V17.3116C15 17.1407 15.1407 17 15.3115 17H16.688C16.8588 17 16.9995 17.1407 16.9995 17.3116V18.6884C17.0095 18.8593 16.8689 19 16.6981 19ZM18.3215 19H19.6981C19.8689 19 20.0095 18.8593 19.9995 18.6884V17.3116C19.9995 17.1407 19.8588 17 19.688 17H18.3115C18.1407 17 18 17.1407 18 17.3116V18.6884C18 18.8593 18.1407 19 18.3215 19ZM13.6981 22H12.3215C12.1407 22 12 21.8593 12 21.6884V20.3116C12 20.1407 12.1407 20 12.3115 20H13.688C13.8588 20 13.9995 20.1407 13.9995 20.3116V21.6884C14.0095 21.8593 13.8689 22 13.6981 22ZM15.3215 22H16.6981C16.8689 22 17.0095 21.8593 16.9995 21.6884V20.3116C16.9995 20.1407 16.8588 20 16.688 20H15.3115C15.1407 20 15 20.1407 15 20.3116V21.6884C15 21.8593 15.1407 22 15.3215 22ZM19.6981 22H18.3215C18.1407 22 18 21.8593 18 21.6884V20.3116C18 20.1407 18.1407 20 18.3115 20H19.688C19.8588 20 19.9995 20.1407 19.9995 20.3116V21.6884C20.0095 21.8593 19.8689 22 19.6981 22ZM12.3215 25H13.6981C13.8689 25 14.0095 24.8593 13.9995 24.6884V23.3116C13.9995 23.1407 13.8588 23 13.688 23H12.3115C12.1407 23 12 23.1407 12 23.3116V24.6884C12 24.8593 12.1407 25 12.3215 25ZM16.6981 25H15.3215C15.1407 25 15 24.8593 15 24.6884V23.3116C15 23.1407 15.1407 23 15.3115 23H16.688C16.8588 23 16.9995 23.1407 16.9995 23.3116V24.6884C17.0095 24.8593 16.8689 25 16.6981 25ZM18.3215 25H19.6981C19.8689 25 20.0095 24.8593 19.9995 24.6884V23.3116C19.9995 23.1407 19.8588 23 19.688 23H18.3115C18.1407 23 18 23.1407 18 23.3116V24.6884C18 24.8593 18.1407 25 18.3215 25Z" fill="#E6E6E6"/>
</svg>

<svg xmlns="http://www.w3.org/2000/svg" width="32" height="32" fill="none"><path fill="#CA0B4A" d="m29.961 14.1-.33-1.47A7.18 7.18 0 0 0 22.621 7H9.38c-3.37 0-6.281 2.34-7.021 5.63l-.32 1.47c-.22.97.52 1.9 1.52 1.9h5.62c.76 0 1.37-.61 1.37-1.37v-.7c0-.52.42-.94.94-.94H20.5c.52 0 .94.42.94.94v.7c0 .76.61 1.37 1.37 1.37h5.621c1.01 0 1.75-.93 1.53-1.9Z"/><path fill="#990838" d="M3 14a1 1 0 1 0 0 2h6a1 1 0 1 0 0-2H3Zm20 0a1 1 0 1 0 0 2h6a1 1 0 1 0 0-2h-6Z"/><path fill="#F92F60" d="m28.12 19.5-3.66-4.88c-.29-.39-.75-.62-1.24-.62h-.91c-.17 0-.31-.14-.31-.31v-2.38c0-.17-.14-.31-.31-.31h-1.38c-.17 0-.31.14-.31.31v2.38c0 .17-.14.31-.31.31h-7.38c-.17 0-.31-.14-.31-.31v-2.38c0-.17-.14-.31-.31-.31h-1.38c-.17 0-.31.14-.31.31v2.38c0 .17-.14.31-.31.31h-.91c-.49 0-.95.23-1.25.63L3.88 19.5A9.366 9.366 0 0 0 2 25.13v3.31C2 29.3 2.7 30 3.56 30h24.88c.86 0 1.56-.7 1.56-1.56v-3.31c0-2.03-.66-4.01-1.88-5.63Z"/><path fill="#990838" d="M28.44 27H3.56C2.7 27 2 26.36 2 25.5v2.94C2 29.3 2.7 30 3.56 30h24.88c.86 0 1.56-.7 1.56-1.56V25.5c0 .86-.7 1.5-1.56 1.5Z"/><path fill="#E6E6E6" d="M13.698 19h-1.377a.315.315 0 0 1-.321-.312v-1.376c0-.171.14-.312.312-.312h1.376c.17 0 .311.14.311.312v1.376c.01.171-.13.312-.3.312Zm3 0h-1.377a.315.315 0 0 1-.321-.312v-1.376c0-.171.14-.312.312-.312h1.376c.17 0 .312.14.312.312v1.376c.01.171-.131.312-.302.312Zm1.623 0h1.377c.17 0 .311-.14.302-.312v-1.376c0-.171-.141-.312-.312-.312h-1.377c-.17 0-.311.14-.311.312v1.376c0 .171.14.312.322.312Zm-4.623 3h-1.377a.315.315 0 0 1-.321-.312v-1.376c0-.171.14-.312.312-.312h1.376c.17 0 .311.14.311.312v1.376c.01.171-.13.312-.3.312Zm1.623 0h1.377c.17 0 .311-.14.302-.312v-1.376c0-.171-.141-.312-.312-.312h-1.376c-.171 0-.312.14-.312.312v1.376c0 .171.14.312.322.312Zm4.377 0h-1.377a.315.315 0 0 1-.321-.312v-1.376c0-.171.14-.312.311-.312h1.377c.17 0 .312.14.312.312v1.376c.01.171-.131.312-.302.312Zm-7.377 3h1.377c.17 0 .311-.14.301-.312v-1.376c0-.171-.14-.312-.311-.312h-1.377c-.17 0-.311.14-.311.312v1.376c0 .171.14.312.322.312Zm4.377 0h-1.377a.315.315 0 0 1-.321-.312v-1.376c0-.171.14-.312.312-.312h1.376c.17 0 .312.14.312.312v1.376c.01.171-.131.312-.302.312Zm1.623 0h1.377c.17 0 .311-.14.302-.312v-1.376c0-.171-.141-.312-.312-.312h-1.377c-.17 0-.311.14-.311.312v1.376c0 .171.14.312.322.312Z"/></svg>
